public/img/old-svg/disabled.svg

<svg width="14" height="14" viewBox="0 0 14 14" fill="none" xmlns="http://www.w3.org/2000/svg">
<path d="M6.41215 2.75925C7.17331 2.75925 7.7917 2.14157 7.7917 1.37964C7.7917 0.617482 7.17331 0 6.41215 0C5.65011 0 5.03223 0.617482 5.03223 1.37964C5.03223 2.14157 5.65011 2.75925 6.41215 2.75925Z" fill="#EC824A"/>
<path d="M8.544 10.577C8.17739 11.8499 7.0039 12.7847 5.6145 12.7847C3.93196 12.7847 2.56368 11.4164 2.56368 9.73436C2.56368 8.48927 3.31482 7.41761 4.38679 6.94407V5.65088C2.63129 6.17963 1.34863 7.80924 1.34863 9.73436C1.34863 12.0863 3.26226 13.9999 5.61447 13.9999C7.32864 13.9999 8.80615 12.9812 9.48362 11.5194L9.00196 10.5731C8.86676 10.5742 8.71013 10.5756 8.544 10.577Z" fill="#EC824A"/>
<path d="M12.5638 12.2147L10.7158 8.58158C10.5779 8.30974 10.2991 8.13863 9.99407 8.13863H7.62724V7.59892H9.66423C9.86764 7.59892 10.0386 7.4926 10.149 7.33945C10.2208 7.23968 10.2719 7.12377 10.2719 6.99125C10.2719 6.65577 10.0001 6.38367 9.66423 6.38367H8.43703H7.62724V4.55311C7.62724 4.04965 7.25395 3.33789 6.41245 3.33789C5.74133 3.33789 5.19727 3.88204 5.19727 4.55311V8.51918C5.19727 9.20379 5.75226 9.75878 6.4369 9.75878H8.66406H9.49739L11.1201 12.9493C11.2627 13.2303 11.5473 13.3924 11.8426 13.3924C11.9664 13.3924 12.0919 13.3641 12.2092 13.3041C12.6086 13.1015 12.7672 12.6135 12.5638 12.2147Z" fill="#EC824A"/>
</svg>

<svg width="14" height="14" viewBox="0 0 14 14" fill="none" xmlns="http://www.w3.org/2000/svg"><path d="M6.412 2.76a1.38 1.38 0 100-2.76 1.38 1.38 0 000 2.76zm2.132 7.817a3.054 3.054 0 01-2.93 2.208 3.054 3.054 0 01-3.05-3.05 3.05 3.05 0 011.823-2.79V5.65a4.272 4.272 0 00-3.038 4.083A4.27 4.27 0 005.614 14a4.268 4.268 0 003.87-2.48l-.482-.947-.458.004z" fill="#EC824A"/><path d="M12.564 12.215l-1.848-3.633a.809.809 0 00-.722-.443H7.627v-.54h2.037a.597.597 0 00.485-.26.593.593 0 00.123-.348.608.608 0 00-.608-.607H7.627v-1.83c0-.504-.373-1.216-1.215-1.216-.67 0-1.215.544-1.215 1.215V8.52c0 .685.555 1.24 1.24 1.24h3.06l1.623 3.19a.81.81 0 101.444-.734z" fill="#EC824A"/></svg>
